assets/mozilla/mono.svg

<svg viewBox="0 0 24 24" xmlns="http://www.w3.org/2000/svg"><path d="m4.819 24h-3.069v-24h3.07zm2.511-11.758h12.15v-.69l-7.918-2.882v-2.42l7.918-2.872v-.7h-9.38v-2.678h12.149v4.89l-6.445 2.224v.69l6.445 2.224v4.89h-14.919zm0-9.565h2.77v2.77h-2.77z"/></svg>

<svg xmlns="http://www.w3.org/2000/svg" viewBox="0 0 24 24"><path d="M4.819 24H1.75V0h3.07zM7.33 12.242h12.15v-.69L11.562 8.67V6.25l7.918-2.872v-.7H10.1V0h12.149v4.89l-6.445 2.224v.69l6.445 2.224v4.89H7.33zm0-9.565h2.77v2.77H7.33z"/></svg>
